packages/icons/svgs/duotone/Source=grain.svg

<svg width="24" height="24" viewBox="0 0 24 24" fill="none" xmlns="http://www.w3.org/2000/svg">
<path fill-rule="evenodd" clip-rule="evenodd" d="M1 2C1 1.44772 1.44772 1 2 1H7C7.55228 1 8 1.44772 8 2V7C8 7.55228 7.55228 8 7 8H2C1.44772 8 1 7.55228 1 7V2ZM3 3V6H6V3H3Z" fill="black" style="fill:black;fill-opacity:1;"/>
<path fill-rule="evenodd" clip-rule="evenodd" d="M16 12C16 11.4477 16.4477 11 17 11H22C22.5523 11 23 11.4477 23 12V17C23 17.5523 22.5523 18 22 18H17C16.4477 18 16 17.5523 16 17V12ZM18 13V16H21V13H18Z" fill="black" style="fill:black;fill-opacity:1;"/>
<path fill-rule="evenodd" clip-rule="evenodd" d="M1 17C1 16.4477 1.44772 16 2 16H7C7.55228 16 8 16.4477 8 17V22C8 22.5523 7.55228 23 7 23H2C1.44772 23 1 22.5523 1 22V17ZM3 18V21H6V18H3Z" fill="black" style="fill:black;fill-opacity:1;"/>
<path fill-rule="evenodd" clip-rule="evenodd" d="M6 12C6 11.4477 6.44772 11 7 11H12C12.5523 11 13 11.4477 13 12V17C13 17.5523 12.5523 18 12 18H7C6.44772 18 6 17.5523 6 17V12ZM8 13V16H11V13H8Z" fill="black" style="fill:black;fill-opacity:1;"/>
<g opacity="0.5">
<path fill-rule="evenodd" clip-rule="evenodd" d="M1 7C1 6.44772 1.44772 6 2 6H7C7.55228 6 8 6.44772 8 7V12C8 12.5523 7.55228 13 7 13H2C1.44772 13 1 12.5523 1 12V7ZM3 8V11H6V8H3Z" fill="black" style="fill:black;fill-opacity:1;"/>
<path fill-rule="evenodd" clip-rule="evenodd" d="M6 2C6 1.44772 6.44772 1 7 1H12C12.5523 1 13 1.44772 13 2V7C13 7.55228 12.5523 8 12 8H7C6.44772 8 6 7.55228 6 7V2ZM8 3V6H11V3H8Z" fill="black" style="fill:black;fill-opacity:1;"/>
<path fill-rule="evenodd" clip-rule="evenodd" d="M16 2C16 1.44772 16.4477 1 17 1H22C22.5523 1 23 1.44772 23 2V7C23 7.55228 22.5523 8 22 8H17C16.4477 8 16 7.55228 16 7V2ZM18 3V6H21V3H18Z" fill="black" style="fill:black;fill-opacity:1;"/>
<path fill-rule="evenodd" clip-rule="evenodd" d="M11 17C11 16.4477 11.4477 16 12 16H17C17.5523 16 18 16.4477 18 17V22C18 22.5523 17.5523 23 17 23H12C11.4477 23 11 22.5523 11 22V17ZM13 18V21H16V18H13Z" fill="black" style="fill:black;fill-opacity:1;"/>
</g>
</svg>

<svg xmlns="http://www.w3.org/2000/svg" width="24" height="24" viewBox="0 0 24 24"><path fill-rule="evenodd" d="M1 7a1 1 0 0 1 1-1h5a1 1 0 0 1 1 1v5a1 1 0 0 1-1 1H2a1 1 0 0 1-1-1zm2 1v3h3V8z" clip-rule="evenodd" opacity=".55"/><path fill-rule="evenodd" d="M6 2a1 1 0 0 1 1-1h5a1 1 0 0 1 1 1v5a1 1 0 0 1-1 1H7a1 1 0 0 1-1-1zm2 1v3h3V3z" clip-rule="evenodd" opacity=".55"/><path fill-rule="evenodd" d="M1 2a1 1 0 0 1 1-1h5a1 1 0 0 1 1 1v5a1 1 0 0 1-1 1H2a1 1 0 0 1-1-1zm2 1v3h3V3z" clip-rule="evenodd"/><path fill-rule="evenodd" d="M16 2a1 1 0 0 1 1-1h5a1 1 0 0 1 1 1v5a1 1 0 0 1-1 1h-5a1 1 0 0 1-1-1zm2 1v3h3V3z" clip-rule="evenodd" opacity=".55"/><path fill-rule="evenodd" d="M16 12a1 1 0 0 1 1-1h5a1 1 0 0 1 1 1v5a1 1 0 0 1-1 1h-5a1 1 0 0 1-1-1zm2 1v3h3v-3zM1 17a1 1 0 0 1 1-1h5a1 1 0 0 1 1 1v5a1 1 0 0 1-1 1H2a1 1 0 0 1-1-1zm2 1v3h3v-3z" clip-rule="evenodd"/><path fill-rule="evenodd" d="M6 12a1 1 0 0 1 1-1h5a1 1 0 0 1 1 1v5a1 1 0 0 1-1 1H7a1 1 0 0 1-1-1zm2 1v3h3v-3z" clip-rule="evenodd"/><path fill-rule="evenodd" d="M11 17a1 1 0 0 1 1-1h5a1 1 0 0 1 1 1v5a1 1 0 0 1-1 1h-5a1 1 0 0 1-1-1zm2 1v3h3v-3z" clip-rule="evenodd" opacity=".55"/></svg>
